markets/ARKM.svg

<svg width="42" height="42" viewBox="0 0 42 42" fill="none" xmlns="http://www.w3.org/2000/svg">
<g clip-path="url(#clip0_9309_2870)">
<circle cx="21.0001" cy="21" r="12.9078" fill="white"/>
<path fill-rule="evenodd" clip-rule="evenodd" d="M21 42C32.598 42 42 32.598 42 21C42 9.40203 32.598 0 21 0C9.40203 0 0 9.40203 0 21C0 32.598 9.40203 42 21 42ZM27.1765 11.4878L24.2 11.4918L27.4359 21.4349L29.8418 19.6833L27.1765 11.4878ZM14.8394 11.4997L13.9217 14.3286L24.3755 14.3206L23.4578 11.4917L14.8394 11.4997ZM21.6105 26.5461L24.0204 28.2937L30.987 23.2264L30.0653 20.3975L21.6105 26.5461ZM21.012 30.4842L14.0374 25.4209L14.9591 22.592L23.4179 28.7326L21.012 30.4842ZM13.6943 15.0348L11.037 23.2303L13.4469 24.9779L16.6708 15.0348H13.6943ZM16.4953 17.8599L17.417 15.031H20.8883L21.81 17.8559L16.4953 17.8599ZM21.6304 15.0269L23.2783 20.0822L25.6843 18.3306L24.6109 15.0269H21.6304ZM24.0284 23.9128L21.6184 22.1692L25.9197 19.037L26.8414 21.8659V21.8699L24.0284 23.9128ZM18.195 24.0683L21.012 26.1152L23.4179 24.3636L19.1127 21.2434L18.195 24.0683ZM15.1946 21.8738L16.2679 18.5661H19.2404L17.6045 23.6214L15.1946 21.8738Z" fill="black"/>
</g>
<defs>
<clipPath id="clip0_9309_2870">
<rect width="42" height="42" fill="white"/>
</clipPath>
</defs>
</svg>

<svg width="42" height="42" fill="none" viewBox="0 0 42 42" xmlns="http://www.w3.org/2000/svg">
  <g clip-path="url(#a)">
    <circle cx="21" cy="21" r="12.908" fill="#fff"/>
    <path fill="#000" fill-rule="evenodd" d="M21 42c11.598 0 21-9.402 21-21S32.598 0 21 0 0 9.402 0 21s9.402 21 21 21m6.177-30.512-2.977.004 3.236 9.943 2.406-1.752zm-12.338.012-.917 2.829 10.453-.008-.917-2.83zm6.771 15.046 2.41 1.748 6.967-5.068-.922-2.828zm-.598 3.938-6.975-5.063.922-2.829 8.459 6.14zm-7.318-15.45-2.657 8.196 2.41 1.748 3.224-9.943zm2.801 2.826.922-2.829h3.471l.922 2.825zm5.135-2.833 1.648 5.055 2.406-1.751-1.073-3.304zm2.398 8.886-2.41-1.744 4.302-3.132.921 2.829v.004zm-5.833.155 2.817 2.047 2.406-1.751-4.305-3.12zm-3-2.194 1.073-3.308h2.972l-1.635 5.055z" clip-rule="evenodd"/>
  </g>
  <defs>
    <clipPath id="a">
      <path fill="#fff" d="M0 0h42v42H0z"/>
    </clipPath>
  </defs>
</svg>
